src/lib/packages/icons/src/assets/filled/user-ban.svg

<svg width="24" height="24" viewBox="0 0 24 24" fill="none" xmlns="http://www.w3.org/2000/svg">
<path d="M6.00903 6.5C6.00903 4.294 7.80303 2.5 10.009 2.5C12.215 2.5 14.009 4.294 14.009 6.5C14.009 8.706 12.215 10.5 10.009 10.5C7.80303 10.5 6.00903 8.706 6.00903 6.5ZM11.75 18C11.75 16.08 12.61 14.38 13.97 13.23C14.02 13.18 14.0601 13.1 14.0601 13.02C14.0601 12.817 13.808 12.733 13.76 12.72C13.24 12.58 12.65 12.5 12 12.5H8C3.94 12.5 2.5 15.47 2.5 18.02C2.5 20.3 3.71 21.5 6 21.5H12.29C12.46 21.5 12.593 21.371 12.599 21.202C12.602 21.122 12.5699 21.071 12.5699 21.071C12.0499 20.16 11.75 19.11 11.75 18ZM22.75 18C22.75 20.619 20.619 22.75 18 22.75C15.381 22.75 13.25 20.619 13.25 18C13.25 15.381 15.381 13.25 18 13.25C20.619 13.25 22.75 15.381 22.75 18ZM15.2419 19.698L19.698 15.2419C19.202 14.9359 18.624 14.75 18 14.75C16.208 14.75 14.75 16.208 14.75 18C14.75 18.624 14.9349 19.202 15.2419 19.698ZM21.25 18C21.25 17.376 21.0651 16.798 20.7581 16.302L16.302 20.7581C16.798 21.0641 17.376 21.25 18 21.25C19.792 21.25 21.25 19.792 21.25 18Z" fill="currentColor"/>
</svg>

<svg xmlns="http://www.w3.org/2000/svg" width="24" height="24" fill="none"><path fill="currentColor" d="M6.009 6.5c0-2.206 1.794-4 4-4s4 1.794 4 4-1.794 4-4 4-4-1.794-4-4ZM11.75 18c0-1.92.86-3.62 2.22-4.77.05-.05.09-.13.09-.21 0-.203-.252-.287-.3-.3-.52-.14-1.11-.22-1.76-.22H8c-4.06 0-5.5 2.97-5.5 5.52 0 2.28 1.21 3.48 3.5 3.48h6.29c.17 0 .303-.129.309-.298a.241.241 0 0 0-.03-.131A6.185 6.185 0 0 1 11.75 18Zm11 0A4.756 4.756 0 0 1 18 22.75 4.756 4.756 0 0 1 13.25 18 4.756 4.756 0 0 1 18 13.25 4.756 4.756 0 0 1 22.75 18Zm-7.508 1.698 4.456-4.456A3.222 3.222 0 0 0 18 14.75 3.254 3.254 0 0 0 14.75 18c0 .624.185 1.202.492 1.698ZM21.25 18c0-.624-.185-1.202-.492-1.698l-4.456 4.456A3.222 3.222 0 0 0 18 21.25 3.254 3.254 0 0 0 21.25 18Z"/></svg>
